X:707
T: Micho Russell's
Z: Piano Box Version by Martin Fleischmann
H: Created 2015-04-29 /  Last Modified 2015-04-29
R: reel
M: 4/4
L: 1/8
K: Gmaj
|: DG (3GFG FGAc | BG (3GFG ABcA | d2 cA BG G2 | (3Bcd cA BGAF |
DG (3GFG FGAc | BG (3GFG ABcA | d2 cA BG G2 | (3Bcd cA G3 z :|
|: g3 e fdde | fdgd fd d2 | g3 e fddc | defd g3 z |
g2 ag fddc | B2 BG ABcA | d2 cA BG G2 | (3Bcd cA G3 z :|
"version"DGG2 FAA2|BGG2 ABcA|d2cA BGG2|(3Bcd cA GAGF|
DGG2 FAA2|BGG2 ABcA|d2cA BGG2|1(3Bcd cA G3F:|2(3Bcd cA g4||
~g2ge fdde|edgd fdd2|gage fddB|defd g2 (3def|
gagf d2dc|BGG2 ABcA|d2cA BGG2|1(3Bcd cA g4:|2(3Bcd cA G3F||

